X: 18847
T: In And Out The Harbour
R: reel
M: 4/4
K: Adorian
A2eg fded|AGAc BG~G2|A2eg fdef|gfge dBA2:|
eaaf gfed|BAeA fAeA|eaaf gfed|gfge dBA2:|

